build/cards/PaymentsMasterEUR.svg

<svg xmlns="http://www.w3.org/2000/svg" fill="none" viewBox="0 0 40 40" focusable="false"><path fill="none" d="M0 0H40V40H0z"/><rect width="38" height="28" x="1" y="6" fill="#37383B" rx="4"/><path fill="#FFF" d="M15.4263 18.783C15.4005 19.0185 15.3872 19.2577 15.3872 19.5C15.3872 19.7423 15.4005 19.9815 15.4263 20.217L14.4086 20.217C13.9068 20.217 13.5 20.6238 13.5 21.1256C13.5 21.6274 13.9068 22.0342 14.4086 22.0342L15.8997 22.0342C16.8875 24.365 19.1964 26 21.8872 26C23.5351 26 25.0416 25.3856 26.1869 24.3748C26.5632 24.0427 26.599 23.4685 26.2669 23.0923C25.9348 22.7161 25.3606 22.6803 24.9844 23.0123C24.1584 23.7414 23.0754 24.1828 21.8872 24.1828C20.2347 24.1828 18.7822 23.3269 17.9487 22.0342L22.3877 22.0342C22.8895 22.0342 23.2963 21.6274 23.2963 21.1256C23.2963 20.6238 22.8895 20.217 22.3877 20.217L17.259 20.217C17.223 19.9832 17.2044 19.7438 17.2044 19.5C17.2044 19.2562 17.223 19.0168 17.259 18.783L22.3877 18.783C22.8895 18.783 23.2963 18.3762 23.2963 17.8744C23.2963 17.3726 22.8895 16.9658 22.3877 16.9658L17.9487 16.9658C18.7822 15.6731 20.2347 14.8172 21.8872 14.8172C23.0754 14.8172 24.1584 15.2586 24.9844 15.9877C25.3606 16.3197 25.9348 16.2839 26.2669 15.9077C26.599 15.5315 26.5632 14.9573 26.1869 14.6252C25.0416 13.6144 23.5351 13 21.8872 13C19.1964 13 16.8875 14.6351 15.8997 16.9658L14.4086 16.9658C13.9068 16.9658 13.5 17.3726 13.5 17.8744C13.5 18.3762 13.9068 18.783 14.4086 18.783L15.4263 18.783Z"/></svg>

<svg xmlns="http://www.w3.org/2000/svg" fill="none" viewBox="0 0 40 40" focusable="false"><path fill="none" d="M0 0h40v40H0z"/><rect width="38" height="28" x="1" y="6" fill="#35383F" rx="4"/><path fill="#FFF" d="M15.42 18.78c-.02.23-.04.47-.04.72 0 .24.02.48.04.71H14.4c-.5 0-.9.41-.9.91s.4.91.9.91h1.49c.99 2.33 3.3 3.97 5.99 3.97 1.65 0 3.16-.62 4.3-1.63.38-.33.41-.91.08-1.28a.904.904 0 0 0-1.28-.08c-.83.73-1.91 1.17-3.1 1.17-1.65 0-3.1-.86-3.94-2.15h4.44c.5 0 .91-.41.91-.91s-.41-.91-.91-.91h-5.13c-.03-.23-.05-.47-.05-.71 0-.25.02-.49.05-.72h5.13c.5 0 .91-.41.91-.91s-.41-.91-.91-.91h-4.44a4.7 4.7 0 0 1 3.94-2.15c1.19 0 2.27.44 3.1 1.17.38.33.95.3 1.28-.08.33-.37.3-.95-.08-1.28a6.47 6.47 0 0 0-4.3-1.62c-2.69 0-5 1.63-5.99 3.96H14.4c-.5 0-.9.41-.9.91s.4.91.9.91z"/></svg>
